src/shared/icons/icon-details.svg

<svg xmlns="http://www.w3.org/2000/svg" xmlns:xlink="http://www.w3.org/1999/xlink" version="1.1" viewBox="10.694709 1.8159605 9.8530178 9.8530188">
<rect id="icon-details-clickable" x="9.70940722" y="0.8306586200000003" width="11.823621359999999" height="11.823622559999999" fill="transparent" fill-opacity="0" stroke-dasharray="0.0452804, 0.18112" stroke-width="0.0279995" style="display:inline;mix-blend-mode:normal;stroke-miterlimit:4.1" xmlns:inkscape="http://www.inkscape.org/namespaces/inkscape" inkscape:label="icon-details-clickable" class="bg-item bg" xmlns="http://www.w3.org/2000/svg"/>
<text x="15.562188" y="10.442361" fill="white" stroke-width="0.105981" text-align="center" style="font-weight:bold;font-size:1.05771px;line-height:1.2;font-family:'Devanagari Sangam MN';letter-spacing:0.0698125px;word-spacing:0.00396651px;text-anchor:middle;fill:#ffffff;fill-opacity:1;stroke:none;stroke-linecap:round;stroke-miterlimit:4.1" xml:space="preserve" id="text2" fill-opacity="1" class="fg" xmlns="http://www.w3.org/2000/svg"><tspan x="15.597094" y="10.442361" fill="white" font-size="1.05771px" stroke-width="0.105981" id="tspan2" style="fill:#ffffff;fill-opacity:1;stroke:none" fill-opacity="1" class="fg">VIEW</tspan></text>
<path id="path16" style="color:#000000;fill:#ffffff;fill-opacity:0.998569;stroke-linecap:round;stroke-linejoin:round;stroke-miterlimit:4.1;-inkscape-stroke:none" d="m 13.386731,2.9122358 a 0.35143724,0.35143724 0 0 0 -0.3514,0.3513997 v 4.4415894 a 0.35143724,0.35143724 0 0 0 0.3514,0.3513997 h 4.441589 a 0.35143724,0.35143724 0 0 0 0.3514,-0.3513997 V 6.4257164 a 0.3514021,0.3514021 0 0 0 -0.3514,-0.3513997 0.3514021,0.3514021 0 0 0 -0.351916,0.3513997 v 0.927592 H 13.738131 V 3.6150353 H 14.82592 A 0.3514021,0.3514021 0 0 0 15.177836,3.2636355 0.3514021,0.3514021 0 0 0 14.82592,2.9122358 Z m 2.66392,0 a 0.3514021,0.3514021 0 0 0 -0.3514,0.3513997 0.3514021,0.3514021 0 0 0 0.3514,0.3513998 h 0.988053 L 15.83206,4.8201297 a 0.31023785,0.31023785 0 0 0 0,0.4397664 0.31023785,0.31023785 0 0 0 0.439249,0 L 17.476404,4.0532514 V 5.040788 A 0.3514021,0.3514021 0 0 0 17.82832,5.3927045 0.3514021,0.3514021 0 0 0 18.17972,5.040788 V 3.2636355 a 0.35143724,0.35143724 0 0 0 -0.3514,-0.3513997 z" fill="white" fill-opacity="1" class="fg" xmlns="http://www.w3.org/2000/svg"/>
</svg>

<svg xmlns="http://www.w3.org/2000/svg" xmlns:xlink="http://www.w3.org/1999/xlink" version="1.1" viewBox="10.695 1.816 9.853 9.853">
<rect id="icon-details-clickable" x="9.709700000000002" y="0.8307000000000004" width="11.823599999999999" height="11.823599999999999" fill="transparent" rx="10" fill-opacity="0" stroke-dasharray="0.0452804, 0.18112" stroke-width=".028" style="mix-blend-mode:normal" class="bg-item bg" xmlns="http://www.w3.org/2000/svg"/>
<text x="15.562188" y="10.442361" fill="white" font-family="'Devanagari Sangam MN'" font-size="1.0577px" font-weight="bold" letter-spacing=".069812px" stroke-linecap="round" stroke-width=".10598" text-align="center" text-anchor="middle" word-spacing=".0039665px" style="line-height:1.2" xml:space="preserve" fill-opacity="1" class="fg" xmlns="http://www.w3.org/2000/svg"><tspan x="15.597094" y="10.442361" fill="white" font-size="1.0577px" stroke-width=".10598" fill-opacity="1" class="fg">VIEW</tspan></text>
<path d="m13.387 2.9122a0.35144 0.35144 0 0 0-0.3514 0.3514v4.4416a0.35144 0.35144 0 0 0 0.3514 0.3514h4.4416a0.35144 0.35144 0 0 0 0.3514-0.3514v-1.2795a0.3514 0.3514 0 0 0-0.3514-0.3514 0.3514 0.3514 0 0 0-0.35192 0.3514v0.92759h-3.7383v-3.7383h1.0878a0.3514 0.3514 0 0 0 0.35192-0.3514 0.3514 0.3514 0 0 0-0.35192-0.3514h-1.4392zm2.6639 0a0.3514 0.3514 0 0 0-0.3514 0.3514 0.3514 0.3514 0 0 0 0.3514 0.3514h0.98805l-1.2066 1.2051a0.31024 0.31024 0 0 0 0 0.43977 0.31024 0.31024 0 0 0 0.43925 0l1.2051-1.2066v0.98754a0.3514 0.3514 0 0 0 0.35192 0.35192 0.3514 0.3514 0 0 0 0.3514-0.35192v-1.7772a0.35144 0.35144 0 0 0-0.3514-0.3514h-1.7777z" color="#000000" fill="white" fill-opacity="1" stroke-linecap="round" stroke-linejoin="round" style="-inkscape-stroke:none" class="fg" xmlns="http://www.w3.org/2000/svg"/>
</svg>
